X: 28386
T: Muiñeiras Do Cuarto Baleiro
R: jig
M: 6/8
K: Gmajor
c2c|:c2c cBA|B2G GFG|AFD DD/D/D|DFA cBA|B2G c2c|
c2c cBA|B2G GFG|AFD DD/D/D|DFA cBA|1 GAB c2c:|2 G3 GFG||
|:A2D DFA|B2G GFG|c2c c2c|cBA B2G|
A2D DFA|B2G GFG|cdc cdc|1 cBA GFG:|2 cBA "D.C."G3||

